!!!COM: Gaspar van Weerbeke
!!!CDT: ~1450-~1517
!!!OPR: Motet cycle Quam pulchra es
!!!OTL: O pulcherrima mulierum
!!!OMV: 4
!!!AGN: Motet; Motet cycle
!!!SCT: Gas0302d
!!!SCA: Gas0302d
!!!voices: 4
**kern	**text	**kern	**text	**kern	**text	**kern	**text
*part4	*part4	*part3	*part3	*part2	*part2	*part1	*part1
*staff4	*staff4	*staff3	*staff3	*staff2	*staff2	*staff1	*staff1
*I"Bassus	*	*I"Tenor	*	*I"Altus	*	*I"Cantus	*
*I'B	*	*I'T	*	*I'A	*	*I'C	*
*clefF4	*	*clefGv2	*	*clefGv2	*	*clefG2	*
*k[b-]	*	*k[b-]	*	*k[b-]	*	*k[b-]	*
*M2/1	*	*M2/1	*	*M2/1	*	*M2/1	*
*met(C)	*	*met(C)	*	*met(C)	*	*met(C)	*
=1	=1	=1	=1	=1	=1	=1	=1
0G	O	0G	O	[0d	O	0g	O
=2	=2	=2	=2	=2	=2	=2	=2
*	*	*lig	*	*	*	*lig	*
1G	.	1B-	.	0d]	.	1g	.
1D	.	1A	.	.	.	1f	.
*	*	*	*	*	*	*Xlig	*
=3	=3	=3	=3	=3	=3	=3	=3
*col	*	*	*	*	*	*	*
3%2E-X	.	0G	.	1B-	.	1.b-	.
3E-	.	.	.	.	.	.	.
3.E-	.	.	.	2.B-	.	.	.
6F	.	.	.	.	.	2g	.
3G	.	.	.	.	.	.	.
.	.	.	.	4c	.	.	.
*Xcol	*	*Xlig	*	*	*	*	*
!!LO:LB:g=ap
=4	=4	=4	=4	=4	=4	=4	=4
*	*	*lig	*	*	*	*	*
1D	.	1.F	.	4d	.	2.a	.
.	.	.	.	4e	.	.	.
.	.	.	.	1f	.	.	.
.	.	.	.	.	.	4b-	.
2A	.	.	.	.	.	4cc	.
.	.	.	.	.	.	4dd	.
*	*	*	*	*	*	*lig	*
[2G	.	[2B-	.	[2g	.	[2b-	.
=5	=5	=5	=5	=5	=5	=5	=5
1G]	.	1B-]	.	4g]	.	2b-]	.
.	.	.	.	4f	.	.	.
*	*	*	*	*	*	*Xlig	*
.	.	.	.	4e	.	1g	.
.	.	.	.	4d	.	.	.
*	*	*Xlig	*	*	*	*	*
*	*	*lig	*	*	*	*	*
1E-i	.	1G	.	1c	.	.	.
.	.	.	.	.	.	4f	.
.	.	.	.	.	.	4e	.
=6	=6	=6	=6	=6	=6	=6	=6
1D;	.	1A;	.	1d;	.	1f;	.
*	*	*Xlig	*	*	*	*	*
1r	.	1r	.	1g	pul-	1b-	pul-
=7	=7	=7	=7	=7	=7	=7	=7
0r	.	0r	.	2e	.	2cc	.
.	.	.	.	2f	.	1dd	-cher-
.	.	.	.	2d	-cher-	.	.
.	.	.	.	[2g	.	4cc	.
.	.	.	.	.	.	4b-	.
!!LO:LB:g=ap
=8	=8	=8	=8	=8	=8	=8	=8
1r	.	1r	.	2g]	.	2a	.
.	.	.	.	2f#i	-ri-	2a	-ri-
1G	pul-	1B-	pul-	1g	-ma	1g	-ma
=9	=9	=9	=9	=9	=9	=9	=9
2E	.	2c	.	0r	.	0r	.
2F	.	1d	-cher-	.	.	.	.
2D	-cher-	.	.	.	.	.	.
[2G	.	4c	.	.	.	.	.
.	.	4B-	.	.	.	.	.
=10	=10	=10	=10	=10	=10	=10	=10
2G]	.	2A	.	0r	.	0r	.
2F#i	-ri-	2A	-ri-	.	.	.	.
*col	*	*	*	*	*	*	*
2.G	-ma	2.G	-ma	.	.	.	.
4F#i	.	4A	.	.	.	.	.
*Xcol	*	*	*	*	*	*	*
=11	=11	=11	=11	=11	=11	=11	=11
2G	mu-	2B-	mu-	0r	.	0r	.
2A	.	2c	.	.	.	.	.
2F	.	2A	-li-	.	.	.	.
2G	-li-	[2d	-e-	.	.	.	.
!!LO:LB:g=ap
=12	=12	=12	=12	=12	=12	=12	=12
1E-i	-e-	2d]	.	1r	.	0r	.
.	.	2c	.	.	.	.	.
[1D	-rum,	[1d	-rum,	[1f	qua-	.	.
=13	=13	=13	=13	=13	=13	=13	=13
1D]	.	1d]	.	2f]	.	1r	.
.	.	.	.	2f	-lis	.	.
[1G	qua-	[1B-	qua-	1g	est	[1dd	qua-
=14	=14	=14	=14	=14	=14	=14	=14
2G]	.	2B-]	.	2g	di-	2dd]	.
2G	-lis	2B-	-lis	1g	-lec-	2dd	-lis
[1C	est	1c	est	.	.	[1ee-X	est
.	.	.	.	2g	-tus	.	.
=15	=15	=15	=15	=15	=15	=15	=15
2C]	.	2c	di-	(1g	tu-	2ee-]	.
2C	di-	1c	-lec-	.	.	2ee-i	di-
1C	-lec-	.	.	4g)	.	1ee-i	-lec-
.	.	.	.	4f	.	.	.
.	.	2c	-tus	4e-i	.	.	.
.	.	.	.	4d	.	.	.
!!LO:LB:g=ap
=16	=16	=16	=16	=16	=16	=16	=16
1C	-tus	1c	tu-	1c	-us	1ee-i	-tus
*	*	*	*	*	*	*	*edit
[1G	tu-	1B-	-us	1d	ex	1dd	tu-
=17	=17	=17	=17	=17	=17	=17	=17
2G]	.	2B-	ex	2B-	di-	2dd	-us
*	*	*	*	*	*	*	*Xedit
2.B-	-us	1.d	di-	1.G	-lec-	1dd	ex
4G	.	.	.	.	.	.	.
2B-	ex	.	.	.	.	2b-	di-
=18	=18	=18	=18	=18	=18	=18	=18
1F	di-	2.c	-lec-	1.A	-to	1.a	-lec-
.	.	4B-	.	.	.	.	.
2F	-lec-	2c	-to	.	.	.	.
2D	-to	[2d	tu-	2F	tu-	2a	-to
=19	=19	=19	=19	=19	=19	=19	=19
*	*edit	*	*	*	*	*	*
1E-i	tu-	2d]	.	1G	-o,	1g	tu-
.	.	2c	.	.	.	.	.
[1D	-o,	2d	-o,	2.A	qui-	[1f	-o,
*	*Xedit	*col	*	*	*	*	*
.	.	[2f	qui-	.	.	.	.
.	.	.	.	4B-	.	.	.
!!LO:LB:g=ap
=20	=20	=20	=20	=20	=20	=20	=20
1D]	.	4f]	.	2A	-a	1f]	.
.	.	4e	.	.	.	.	.
.	.	2.f	.	2.d	sic	.	.
1r	.	.	.	.	.	1r	.
.	.	4e	.	4c	.	.	.
*	*	*Xcol	*	*	*	*	*
.	.	2d	-a	2d	.	.	.
=21	=21	=21	=21	=21	=21	=21	=21
0r	.	2c	sic	2e	ad-	0r	.
*	*	*col	*	*	*	*	*
.	.	2.d	ad-	2.f	-iu-	.	.
.	.	4c	.	4e	.	.	.
*	*	*Xcol	*	*	*	*	*
.	.	2A	-iu-	2f	.	.	.
=22	=22	=22	=22	=22	=22	=22	=22
0r	.	2G	.	2g	.	0r	.
*	*	*	*	*lig	*	*	*
.	.	1c	-ras-	1a	-ras-	.	.
.	.	2B-	.	[2g	.	.	.
=23	=23	=23	=23	=23	=23	=23	=23
0r	.	1A	-ti	2g]	.	0r	.
*	*	*	*	*Xlig	*	*	*
.	.	.	.	2f#i	-ti	.	.
.	.	1G	nos?	1g	nos?	.	.
!!LO:LB:g=ap
=24	=24	=24	=24	=24	=24	=24	=24
2r	.	2r	.	2r	.	2r	.
2G	Di-	2B-	Di-	2d	Di-	2g	Di-
2G	-lec-	2B-	-lec-	2d	-lec-	2g	-lec-
2G	-tus	2B-	-tus	2d	-tus	2g	-tus
=25	=25	=25	=25	=25	=25	=25	=25
1G	me-	1B-	me-	2.d	me-	1g	me-
.	.	.	.	4e	.	.	.
2D	-us	2A	-us	2.f	.	2a	-us
[2F	can-	[2A	can-	.	.	[2a	can-
.	.	.	.	4e	.	.	.
=26	=26	=26	=26	=26	=26	=26	=26
2F]	.	2A]	.	2c	-us	2a]	.
2E	.	2G	.	1e	can-	2b-	.
2F	.	2F	.	.	.	2a	.
2D	.	[2A	.	[2d	.	2f	.
=27	=27	=27	=27	=27	=27	=27	=27
1E	-di-	2A]	.	2d]	.	1g	-di-
.	.	2G	-di-	2c#i	-di-	.	.
1D	-dus	1A	-dus	1d	-dus	1f	-dus
!!LO:LB:g=ap
=28	=28	=28	=28	=28	=28	=28	=28
2r	.	2r	.	2r	.	2r	.
2D	et	2A	et	2d	et	2a	et
2D	ru-	2A	ru-	2d	ru-	2a	ru-
2D	-bi-	2A	-bi-	2d	-bi-	2a	-bi-
=29	=29	=29	=29	=29	=29	=29	=29
2G	-cun-	2G	-cun-	2d	-cun-	2b-	-cun-
1F	.	1c	.	1f	.	1a	.
2E	.	2G	.	2c	.	[2g	.
=30	=30	=30	=30	=30	=30	=30	=30
1D	-dus,	1A	.	1d	.	2g]	.
.	.	.	.	.	.	2f#i	.
1r	.	[1G	-dus,	1d	-dus,	1g	-dus,
=31	=31	=31	=31	=31	=31	=31	=31
0r	.	1G]	.	1r	.	2r	.
.	.	.	.	.	.	2dd	e-
.	.	1r	.	2r	.	[1dd	-lec-
.	.	.	.	2d	e-	.	.
!!LO:LB:g=ap
=32	=32	=32	=32	=32	=32	=32	=32
0r	.	0r	.	1.d	-lec-	2dd]	.
.	.	.	.	.	.	2b-	-tus
.	.	.	.	.	.	2.dd	ex
.	.	.	.	2B-	-tus	.	.
.	.	.	.	.	.	4ee	.
=33	=33	=33	=33	=33	=33	=33	=33
*	*	*	*	*	*	*col	*
0r	.	0r	.	2.d	ex	2.ff	.
.	.	.	.	4e	.	4ee	.
*	*	*	*	*	*	*Xcol	*
.	.	.	.	2.f	.	2cc	.
.	.	.	.	.	.	2ff	mi-
.	.	.	.	4e	.	.	.
=34	=34	=34	=34	=34	=34	=34	=34
0r	.	0r	.	2c	.	2ee	.
.	.	.	.	2f	mi-	2.dd	.
.	.	.	.	2e	.	.	.
.	.	.	.	.	.	4cc	.
.	.	.	.	2g	.	2b-	.
=35	=35	=35	=35	=35	=35	=35	=35
1r	.	0r	.	2d	.	2a	.
.	.	.	.	2f	.	1dd	.
1A	La-	.	.	1e	-li-	.	.
.	.	.	.	.	.	2cc#i	-li-
!!LO:LB:g=ap
=36	=36	=36	=36	=36	=36	=36	=36
(1B-	.	0r	.	1d	-bus.	1.dd	-bus,
2B-)	.	.	.	1r	.	.	.
2A	-bi-	.	.	.	.	2cc	.
=37	=37	=37	=37	=37	=37	=37	=37
*	*	*	*	*	*	*	*edit
2B-	-a	0r	.	1r	.	2dd	mi-
1G	il-	.	.	.	.	2b-	.
.	.	.	.	1a	La-	1a	-li-
2F#i	.	.	.	.	.	.	.
=38	=38	=38	=38	=38	=38	=38	=38
2G	.	0r	.	1.b-	.	2g	-bus.
1d	.	.	.	.	.	2r	.
.	.	.	.	.	.	1r	.
2c	.	.	.	2a	-bi-	.	.
*	*	*	*	*	*	*	*Xedit
=39	=39	=39	=39	=39	=39	=39	=39
2d	.	1r	.	2b-	-a	0r	.
2B-	.	.	.	1g	il-	.	.
1A	-li-	1A	stil-	.	.	.	.
.	.	.	.	2f#i	.	.	.
!!LO:LB:g=ap
=40	=40	=40	=40	=40	=40	=40	=40
1G	-us	1.B-	-lan-	2.g	.	0r	.
.	.	.	.	4f	.	.	.
1r	.	.	.	2d	.	.	.
.	.	2A	.	2c	.	.	.
=41	=41	=41	=41	=41	=41	=41	=41
1r	.	2B-	.	2d	.	1r	.
.	.	1G	.	2B-	.	.	.
1D	stil-	.	.	1A	-li-	1a	stil-
.	.	2F#i	-ti-	.	.	.	.
=42	=42	=42	=42	=42	=42	=42	=42
1.G	-lan-	2G	-a,	2G	-us	1.b-	-lan-
*	*	*	*edit	*	*	*	*
.	.	1d	stil-	1g	stil-	.	.
2A	.	2c	.	2e	-lan-	2a	.
=43	=43	=43	=43	=43	=43	=43	=43
2D	.	2d	-lan-	2f	.	2b-	.
2G	-ti-	2B-	.	1.d	-ti-	1g	.
1D	-a	1A	-ti-	.	.	.	.
.	.	.	.	.	.	2f#i	-ti-
!!LO:LB:g=ap
=44	=44	=44	=44	=44	=44	=44	=44
2r	.	1G	-a	1B-	-a	1g	-a
1G	mir-	.	.	.	.	.	.
*	*	*	*Xedit	*	*	*	*
.	.	2d	mir-	1r	.	2b-	mir-
2E	.	2e	.	.	.	2cc	.
=45	=45	=45	=45	=45	=45	=45	=45
2D	.	2f	.	2.d	mi-	2dd	.
2G	.	2g	.	.	.	2b-	.
.	.	.	.	4e	.	.	.
2D	-ram	2f	-ram	2f	-ram	2a	-ram
*	*	*lig	*	*	*	*lig	*
[2G	pri-	[2d	pri-	[2g	pri-	[2b-	pri-
=46	=46	=46	=46	=46	=46	=46	=46
2G]	.	2d]	.	2g]	.	2b-]	.
2A	.	1c	.	2e	.	1a	.
2F	.	.	.	2f	.	.	.
*	*	*Xlig	*	*	*	*Xlig	*
2G	.	2B-	.	[2d	-mam.	[2g	.
=47	=47	=47	=47	=47	=47	=47	=47
1D	-mam.	1A	.	1d]	.	2g]	.
.	.	.	.	.	.	2f#i	.
!!LO:LB:g=ap
=48	=48	=48	=48	=48	=48	=48	=48
*M3/1	*	*M3/1	*	*M3/1	*	*M3/1	*
*met(3)	*	*met(3)	*	*met(3)	*	*met(3)	*
1.G	Gut-	1.G	-mam.	1d	Gut-	1.g	-mam.
.	.	.	.	2d	-tur	.	.
1E-i	-tur	1.G	Gut-	2.e-X	il-	1.g	Gut-
.	.	.	.	4d	.	.	.
2E-i	il-	.	.	2c	-li-	.	.
=49	=49	=49	=49	=49	=49	=49	=49
1.D	-li-	1A	-tur	1.d	-us	1f	-tur
.	.	2B-	il-	.	.	2f	il-
1C	-us	1c	-li-	1G	con-	1e	-li-
2D	.	2A	-us	2F	.	2f	-us
=50	=50	=50	=50	=50	=50	=50	=50
1.E-i	con-	1.G	con-	1B-	.	1g	con-
.	.	.	.	2G	-su-	2e-i	.
1.D	-su-	1.d	-su-	1A	-a-	2.f	.
.	.	.	.	.	.	4g	.
.	.	.	.	2F	.	2a	-su-
!!LO:LB:g=ap
=51	=51	=51	=51	=51	=51	=51	=51
1.G	-a-	1d	-a-	2.B-	.	1b-	-a-
.	.	.	.	4A	.	.	.
.	.	2e	.	2B-	.	2g	.
1F	-vis-	1f	-vis-	1c	-vis-	2.a	-vis-
.	.	.	.	.	.	4b-	.
2E	.	2c	.	2G	.	2cc	.
=52	=52	=52	=52	=52	=52	=52	=52
*col	*	*col	*	*col	*	*col	*
1D	-si-	1f	-si-	1A	-si-	1dd	-si-
2A	.	2e	.	2a	.	2cc	.
2B-	.	2d	.	2g	.	2b-	.
1A	.	1e	.	1a	.	1cc	.
*Xcol	*	*Xcol	*	*Xcol	*	*Xcol	*
=53	=53	=53	=53	=53	=53	=53	=53
1D	-mus	1d	-mus	1f	-mus	1dd	-mus
2D	et	2f	et	2a	et	2dd	et
1A	to-	1e	to-	1a	to-	1cc	to-
2A	-tus	2e	-tus	2a	-tus	2cc	-tus
!!LO:LB:g=ap
=54	=54	=54	=54	=54	=54	=54	=54
2D	de-	2d	de-	2a	de-	2dd	de-
2D	-si-	2d	-si-	2a	-si-	2dd	-si-
2D	-de-	2f	-de-	2a	-de-	2dd	-de-
1A	-ra-	1e	-ra-	1a	-ra-	1cc	-ra-
2A	-bi-	2e	-bi-	2a	-bi-	2cc	-bi-
=55	=55	=55	=55	=55	=55	=55	=55
(1D	-lis.	1.d	-lis.	1.f	-lis.	1.dd	-lis.
2D)	.	.	.	.	.	.	.
1C	Ta-	1e	Ta-	1g	Ta-	1.r	.
2C	-lis	2e	-lis	2g	-lis	.	.
=56	=56	=56	=56	=56	=56	=56	=56
*	*	*	*	*	*	*col	*
1D	est	1d	est	2.f	est	1ff	Ta-
.	.	.	.	4g	.	.	.
2r	.	2c	di-	2a	di-	2ee	-lis
1.r	.	2B-	-lec-	2b-	-lec-	2dd	est
.	.	2c	.	2a	.	1cc	di-
.	.	2A	.	2f	.	.	.
*	*	*	*	*	*	*Xcol	*
!!LO:LB:g=ap
=57	=57	=57	=57	=57	=57	=57	=57
1.r	.	1G	.	1g	.	1b-	-lec-
.	.	2A	-tus	2f	-tus	2a	-tus
2G	me-	1B-	me-	2d	me-	2g	me-
2D	.	.	.	2f	.	2f	.
2E	.	2G	.	2e	.	2g	.
=58	=58	=58	=58	=58	=58	=58	=58
1D	-us	1.F	-us	1f	-us	1a	-us
2D	et	.	.	2r	.	2a	et
1G	ip-	1.B-	et	1d	et	2.g	ip-
.	.	.	.	.	.	4f	.
2G	-se	.	.	2d	ip-	2g	-se
=59	=59	=59	=59	=59	=59	=59	=59
1D	a-	1A	ip-	1d	-se	1a	a-
2G	.	2B-	-se	2e	a-	2g	.
2.F	-mi-	1.c	a-	1.f	-mi-	2.a	-mi-
4G	.	.	.	.	.	4b-	.
2A	.	.	.	.	.	2cc	.
!!LO:LB:g=ap
=60	=60	=60	=60	=60	=60	=60	=60
*col	*	*	*	*col	*	*	*
1G	-cus	1d	-mi-	1g	-cus	2.b-	-cus
.	.	.	.	.	.	4a	.
2G	me-	2B-	-cus	1e	me-	2g	.
2C	.	2c	.	.	.	1g	me-
1D	-us,	1A	me-	1d	.	.	.
.	.	.	.	.	.	2f#i	.
*Xcol	*	*	*	*Xcol	*	*	*
=61	=61	=61	=61	=61	=61	=61	=61
1.r	.	[0G	-us,	1.d	-us,	1g	-us,
.	.	.	.	.	.	2r	.
*col	*	*	*	*	*	*	*
1B-	fi-	.	.	1r	.	1dd	fi-
.	.	2G]	.	.	.	.	.
2G	-li-	2r	.	2g	fi-	2dd	-li-
!!LO:LB:g=ap
=62	=62	=62	=62	=62	=62	=62	=62
2F	.	1d	fi-	2a	.	2.ff	-ae
1B-	-ae	.	.	2f	-li-	.	.
.	.	.	.	.	.	4ee	.
.	.	2d	-li-	2g	.	2dd	.
*Xcol	*	*	*	*	*	*	*
1F	Ie-	2.f	-ae	1a	-ae	1cc	Ie-
.	.	4e	.	.	.	.	.
2B-	.	2d	.	2g	.	2b-	.
=63	=63	=63	=63	=63	=63	=63	=63
1F	-ru-	1c	Ie-	2.f	Ie-	1a	-ru-
.	.	.	.	4e	.	.	.
2G	.	2B-	.	2d	.	2g	.
2.D	.	2.A	-ru-	2.d	-ru-	2.f	.
4G	.	4B-	.	4B-	.	4g	.
2F	.	2A	.	2c	.	4a	.
.	.	.	.	.	.	4b-	.
!!LO:LB:g=ap
=64	=64	=64	=64	=64	=64	=64	=64
2.A	.	2.F	.	1f	.	2.cc	.
4B-	.	4G	.	.	.	4b-	.
2c	.	4A	.	2e	.	4a	.
.	.	4B-	.	.	.	4g	.
2A	.	2c	.	2f	.	2a	.
1G	.	2d	.	1g	.	2.b-	.
.	.	2B-	.	.	.	.	.
.	.	.	.	.	.	4a	.
=65	=65	=65	=65	=65	=65	=65	=65
2C	.	2c	.	2e	.	1g	.
1D	-sa-	1A	-sa-	1d	-sa-	.	.
.	.	.	.	.	.	2f#i	-sa-
0.Gl	-lem.	0.Gl	-lem.	0.dl	-lem.	0.gl	-lem.
==	==	==	==	==	==	==	==
*-	*-	*-	*-	*-	*-	*-	*-
!!!RDF**kern: l = terminal long
!!!RDF**kern: i = editorial accidental
!!!system-decoration: [*]
!!!PTL: MCE 6: Gaspar van Weerbeke, Quam pulchra es
!!!ISBN: 978-3-9524701-7-6
!!!URL: https://www.gaffurius-codices.ch/s/portal/page/mce06
!!!PPR: Gaffurius Codices Online, Motet Cycles Edition (https://www.gaffurius-codices.ch/s/portal/page/editions)
!!!PC#: MCE 06-04
!!!PDT: 2021
!!!PED: Pavanello, Agnese
!!!YEC: Copyright 2021, Pavanello, Agnese
!!!YEM: CC-BY-NC 4.0 (https://creativecommons.org/licenses/by-nc/4.0/legalcode)
!!!ENC: Wissmann, Rolf
!!!EED: Sapp, Craig Stuart
!!!EEV: 2022/02/02
!!!title: @{OPR} &mdash; @{OMV}. @{OTL}
!!!muse2ps: C^@{COM}^i2I150v90,90,90,120c122z18l2700t130
